X:1295
T:Slängpolska i G efter John-Erik Mattsson
R:[[!Slängpolska]] (nordlig)
Z:Lennart Sohlman
O:Digerberget (Rätansbyn, s. Jämtland
S:efter John-Erik Mattsson
M:3/4
L:1/8
Q:150
K:G
"G"G>F G>A Bc|"G"d>B G2 G2|"D7"{A}G>F d2 (dF)|"G"G>F G>A B2|!
"G"(G>F) G>A Bc|"G"d>B G2 G2|"D7"{A}G>F d2 (dF)|"G"(F<G) G4|!
"G"(D2 G)>A Bc|"G"d>B G2 G2|"D7"{A}G>F d2 (dF)|"G"G>F G>A B2|!
(G>F) G>A Bc|d>B G2 G2|"D7"{A}G>F d2 (dF)|"G"(F<G) G4||!
|:"G"{B}dz/c/ Bz/G/ Bd|"G"g2 B4|"D7"{e}(3dcB c2 Ac|"G"ed ^cd (B2|!
d"G")z/B/ Gz/A/ (3B(cd)|"G"g2 B4|"D7"{e}dz/c/ Az/d/ fa|"G"{a}g2 g4:|]
(:musicend:)
(:music:)
